CSETWebApi/CSETWeb_Api/CSETWeb_ApiCore/Diagram/src/main/webapp/img/lib/ibm/management/content_management.svg

<svg xmlns="http://www.w3.org/2000/svg" viewBox="0 0 59.8 59.8"><circle cx="29.9" cy="29.9" r="29.9" fill="#00b09c"/><path d="M36.2 13.6c-2.3 0-4.6.9-6.3 2.5a9.1 9.1 0 0 0-6.3-2.5h-10v30.1h10c2.3 0 4.6.9 6.3 2.5a9.1 9.1 0 0 1 6.3-2.5h10V13.6h-10zm-6.3 31c-1.8-1.3-4-2.1-6.3-2.1h-8.8V14.8h8.8c2 0 3.9.8 5.4 2.1l.9.9v26.8zm12.5-9.7h-8.8v-1.3h8.8v1.3zm0-3.8h-8.8v-1.3h8.8v1.3zm0-3.7h-8.8v-1.3h8.8v1.3zm0-3.8h-8.8v-1.3h8.8v1.3z" fill="#fff"/></svg>

<?xml version="1.0" encoding="utf-8"?>
<!-- Generator: Adobe Illustrator 21.1.0, SVG Export Plug-In . SVG Version: 6.00 Build 0)  -->
<svg version="1.1" id="Layer_1" xmlns="http://www.w3.org/2000/svg" xmlns:xlink="http://www.w3.org/1999/xlink" x="0px" y="0px"
	 viewBox="0 0 59.8 59.8" style="enable-background:new 0 0 59.8 59.8;" xml:space="preserve">
<style type="text/css">
	.st0{fill:#00B09C;}
	.st1{fill:#FFFFFF;}
</style>
<title>INDIVIDUAL ICONS</title>
<circle class="st0" cx="29.9" cy="29.9" r="29.9"/>
<path class="st1" d="M36.2,13.6c-2.3,0-4.6,0.9-6.3,2.5c-1.7-1.6-3.9-2.5-6.3-2.5h-10v30.1h10c2.3,0,4.6,0.9,6.3,2.5
	c1.7-1.6,3.9-2.5,6.3-2.5h10V13.6H36.2z M29.9,44.6c-1.8-1.3-4-2.1-6.3-2.1h-8.8V14.8h8.8c2,0,3.9,0.8,5.4,2.1l0.9,0.9V44.6z
	 M42.4,34.9h-8.8v-1.3h8.8L42.4,34.9z M42.4,31.1h-8.8v-1.3h8.8L42.4,31.1z M42.4,27.4h-8.8v-1.3h8.8L42.4,27.4z M42.4,23.6h-8.8
	v-1.3h8.8L42.4,23.6z"/>
</svg>
